assets/svgs/p-translate.svg

<svg xmlns="http://www.w3.org/2000/svg" xmlns:xlink="http://www.w3.org/1999/xlink" fill="none" version="1.1" width="24" height="24" viewBox="0 0 24 24"><g><g><path d="M16.28112443359375,15.4285888671875C16.63197443359375,15.4285888671875,16.97361443359375,15.5264753671875,17.05666443359375,15.7358198671875L18.83874443359375,20.1249388671875C18.84794443359375,20.1527588671875,18.85715443359375,20.1737888671875,18.85715443359375,20.1946588671875C18.85715443359375,20.4111288671875,18.42324443359375,20.5714488671875,18.10001443359375,20.5714488671875C17.89686443359375,20.5714488671875,17.739954433593752,20.5227588671875,17.69394443359375,20.3900888671875L17.34287443359375,19.461948867187502L15.22835443359375,19.461948867187502L14.87772443359375,20.3900888671875C14.83148443359375,20.5227588671875,14.67458143359375,20.5714488671875,14.47143543359375,20.5714488671875C14.14819743359375,20.5714488671875,13.71429443359375,20.4180888671875,13.71429443359375,20.1946588671875C13.71429443359375,20.1807488671875,13.72349773359375,20.152928867187498,13.73270103359375,20.1249388671875L15.51477443359375,15.7358198671875C15.59783443359375,15.5264753671875,15.93947443359375,15.4285888671875,16.28112443359375,15.4285888671875ZM16.28088443359375,16.6080288671875L15.47772443359375,18.7501688671875L17.08448443359375,18.7501688671875L16.28088443359375,16.6080288671875Z" fill-rule="evenodd" fill="#5F84FF" fill-opacity="1"/></g><g><path d="M14.2092,9.79065L21.4142,9.79065C22.84,9.79065,24,10.9506,24,12.3766L24,21.414C24,22.8398,22.84,24,21.4142,24L12.3766,24C11.0806,24,10.0042,23.0414,9.81903,21.796L7.44928,20.1033C7.26453,19.9715,7.15485,19.7584,7.15485,19.5313C7.15485,19.3043,7.26453,19.0911,7.44928,18.9591L9.79083,17.2866L9.79083,14.2094L2.586,14.2094C1.15997,14.2094,0,13.0494,0,11.6235L0,2.586C0,1.15997,1.15997,0,2.586,0L11.6234,0C12.9194,0,13.9958,0.958557,14.181,2.20404L16.5507,3.89667C16.7355,4.02869,16.8452,4.24164,16.8452,4.46887C16.8452,4.69592,16.7355,4.90887,16.5507,5.04089L14.2092,6.71338L14.2092,9.79065ZM2.586,12.8031C1.93542,12.8031,1.40625,12.2739,1.40625,11.6234L1.40625,2.58582C1.40625,1.93542,1.93542,1.40625,2.586,1.40625L11.6234,1.40625C12.2737,1.40625,12.8029,1.93542,12.8029,2.58582C12.8029,2.81305,12.9126,3.02618,13.0974,3.15802L14.9323,4.46869L13.0974,5.77936C12.9126,5.91138,12.8029,6.12451,12.8029,6.35156L12.8029,9.79065L12.3766,9.79065C10.9508,9.79065,9.79083,10.9506,9.79083,12.3765L9.79083,12.8031L2.586,12.8031ZM22.5939,21.4139C22.5939,22.0645,22.0647,22.5936,21.4143,22.5936L12.3768,22.5936C11.7264,22.5936,11.1972,22.0645,11.1972,21.4139C11.1972,21.1868,11.0875,20.9737,10.9028,20.8419L9.06787,19.5312L10.9028,18.2205C11.0875,18.0885,11.1972,17.8754,11.1972,17.6483L11.1972,12.3765C11.1972,11.726,11.7264,11.1968,12.3768,11.1968L21.4143,11.1968C22.0647,11.1968,22.5939,11.726,22.5939,12.3765L22.5939,21.4139Z" fill-rule="evenodd" fill="#5F84FF" fill-opacity="1"/></g><g><path d="M10.285712783203124,6.76974330078125C10.285712783203124,6.97264330078125,10.107082783203126,7.1371933007812505,9.887012783203126,7.1371933007812505L9.337322783203124,7.1371933007812505C9.249472783203124,7.91296330078125,8.886322783203125,8.61409330078125,8.340122783203125,9.157113300781251C8.792962783203125,9.40716330078125,9.321852783203125,9.55102330078125,9.887012783203126,9.55102330078125C10.107082783203126,9.55102330078125,10.285712783203124,9.71540330078125,10.285712783203124,9.91829330078125C10.285712783203124,10.12118330078125,10.107082783203126,10.285743300781249,9.887012783203126,10.285743300781249C9.080052783203126,10.285743300781249,8.331472783203125,10.05333330078125,7.714192783203125,9.65806330078125C7.097092783203125,10.05333330078125,6.348502783203125,10.285743300781249,5.541544783203125,10.285743300781249C5.321481783203125,10.285743300781249,5.142852783203125,10.12118330078125,5.142852783203125,9.91829330078125C5.142852783203125,9.71540330078125,5.321481783203125,9.55102330078125,5.541544783203125,9.55102330078125C6.106712783203125,9.55102330078125,6.635602783203125,9.40682330078125,7.088432783203125,9.157113300781251C6.542232783203125,8.61409330078125,6.179082783203125,7.91296330078125,6.091243783203125,7.1371933007812505L5.541544783203125,7.1371933007812505C5.321481783203125,7.1371933007812505,5.142852783203125,6.97264330078125,5.142852783203125,6.76974330078125C5.142852783203125,6.56685330078125,5.321481783203125,6.40230330078125,5.541544783203125,6.40230330078125L7.3154927832031245,6.40230330078125L7.3154927832031245,5.51032730078125C7.3154927832031245,5.30743530078125,7.4941227832031245,5.14288330078125,7.714192783203125,5.14288330078125C7.934432783203125,5.14288330078125,8.113062783203125,5.30743530078125,8.113062783203125,5.51032730078125L8.113062783203125,6.40230330078125L9.887012783203126,6.40230330078125C10.107082783203126,6.40230330078125,10.285712783203124,6.56685330078125,10.285712783203124,6.76974330078125ZM6.894802783203125,7.13726330078125C6.981542783203125,7.739323300781249,7.277842783203125,8.280993300781251,7.714102783203125,8.69814330078125C8.150552783203125,8.280993300781251,8.446852783203125,7.739323300781249,8.533592783203126,7.13726330078125L6.894802783203125,7.13726330078125Z" fill-rule="evenodd" fill="#5F84FF" fill-opacity="1"/></g></g></svg>

<svg fill="none" height="24" viewBox="0 0 24 24" width="24" xmlns="http://www.w3.org/2000/svg"><g clip-rule="evenodd" fill="#5f84ff" fill-rule="evenodd"><path d="m16.2811 15.4286c.3509 0 .6925.0979.7756.3072l1.782 4.3891c.0019.0057.0038.0112.0056.0164.007.0201.0129.0368.0129.0534 0 .2164-.434.3767-.7572.3767-.2031 0-.36-.0486-.4061-.1813l-.351-.9281h-2.1145l-.3507.9281c-.0462.1327-.2031.1813-.4063.1813-.3232 0-.7571-.1533-.7571-.3767 0-.0138.009-.0411.0181-.0688l.0003-.001 1.7821-4.3891c.083-.2093.4247-.3072.7663-.3072zm-.0002 1.1794-.8032 2.1421h1.6068z"/><path d="m21.4142 9.79065h-7.205v-3.07727l2.3415-1.67249c.1848-.13202.2945-.34497.2945-.57202 0-.22723-.1097-.44018-.2945-.5722l-2.3697-1.69263c-.1852-1.245483-1.2616-2.20404-2.5576-2.20404h-9.0374c-1.42603 0-2.586 1.15997-2.586 2.586v9.0375c0 1.4259 1.15997 2.5859 2.586 2.5859h7.20483v3.0772l-2.34155 1.6725c-.18475.132-.29443.3452-.29443.5722 0 .2271.10968.4402.29443.572l2.36975 1.6927c.18517 1.2454 1.26157 2.204 2.55757 2.204h9.0376c1.4258 0 2.5858-1.1602 2.5858-2.586v-9.0374c0-1.426-1.16-2.58595-2.5858-2.58595zm-18.8282 3.01245c-.65058 0-1.17975-.5292-1.17975-1.1797v-9.03758c0-.6504.52917-1.17957 1.17975-1.17957h9.0374c.6503 0 1.1795.52917 1.1795 1.17957 0 .22723.1097.44036.2945.5722l1.8349 1.31067-1.8349 1.31067c-.1848.13202-.2945.34515-.2945.5722v3.43909h-.4263c-1.4258 0-2.58577 1.15995-2.58577 2.58585v.4266zm18.8282 9.7906c.6504 0 1.1796-.5292 1.1796-1.1798v-9.0373c0-.6506-.5292-1.1798-1.1796-1.1798h-7.9063-.0019-.0018-1.1276c-.6503 0-1.1795.5292-1.1795 1.1798v5.2718c0 .227-.1097.4402-.2945.5722l-1.83485 1.3107 1.83485 1.3106c.1848.1319.2945.345.2945.572 0 .6506.5292 1.1798 1.1795 1.1798z"/><path d="m10.2857 6.76969c0 .20289-.1786.36744-.39868.36744h-.5497c-.08784.77577-.45099 1.4769-.99719 2.01992.45283.25005.98172.39391 1.54689.39391.22008 0 .39868.16438.39868.36728 0 .20286-.1786.36746-.39868.36746-.80696 0-1.55555-.2324-2.17283-.62769-.6171.39529-1.36568.62769-2.17264.62769-.22007 0-.3987-.1646-.3987-.36746 0-.2029.17863-.36728.3987-.36728.56516 0 1.09405-.14419 1.54689-.39391-.5462-.54302-.90935-1.24415-.9972-2.01992h-.54969c-.22007 0-.3987-.16455-.3987-.36744 0-.2029.17863-.36745.3987-.36745h1.77395v-.89197c0-.2029.17863-.36745.39869-.36745.22025 0 .39888.16455.39888.36745v.89197h1.77395c.22008 0 .39868.16455.39868.36745zm-3.39081.36745c.08674.60206.38304 1.14372.8193 1.56087.43644-.41715.73275-.95881.81948-1.56087z"/></g></svg>
